svg/sport/fitness_line.svg

<?xml version="1.0" encoding="UTF-8"?>
<svg width="24px" height="24px" viewBox="0 0 24 24" version="1.1" xmlns="http://www.w3.org/2000/svg" xmlns:xlink="http://www.w3.org/1999/xlink">
    <title>fitness_line</title>
    <g id="Icon" stroke="none" stroke-width="1" fill="none" fill-rule="evenodd">
        <g id="Sport" transform="translate(-480.000000, 0.000000)">
            <g id="fitness_line" transform="translate(480.000000, 0.000000)">
                <path d="M24,0 L24,24 L0,24 L0,0 L24,0 Z M12.5935,23.2578 L12.5819,23.2595 L12.5109,23.295 L12.4919,23.2987 L12.4767,23.295 L12.4057,23.2595 C12.3958,23.2564 12.387,23.259 12.3821,23.2649 L12.378,23.2758 L12.3609,23.7031 L12.3659,23.7235 L12.3769,23.7357 L12.4805,23.8097 L12.4953,23.8136 L12.5071,23.8097 L12.6107,23.7357 L12.6233,23.7197 L12.6267,23.7031 L12.6096,23.2758 C12.6076,23.2657 12.601,23.2593 12.5935,23.2578 Z M12.8584,23.1453 L12.8445,23.1473 L12.6598,23.2397 L12.6499,23.2499 L12.6472,23.2611 L12.6651,23.6906 L12.6699,23.7034 L12.6784,23.7105 L12.8793,23.8032 C12.8914,23.8069 12.9022,23.803 12.9078,23.7952 L12.9118,23.7812 L12.8777,23.1665 C12.8753,23.1546 12.8674,23.147 12.8584,23.1453 Z M12.143,23.1473 C12.1332,23.1424 12.1222,23.1453 12.1156,23.1526 L12.1099,23.1665 L12.0758,23.7812 C12.0751,23.7927 12.0828,23.8019 12.0926,23.8046 L12.1083,23.8032 L12.3092,23.7105 L12.3186,23.7024 L12.3225,23.6906 L12.3404,23.2611 L12.3372,23.2485 L12.3278,23.2397 L12.143,23.1473 Z" id="MingCute" fill-rule="nonzero"></path>
                <path d="M11.8785,5.5003 C10.9242,5.61746 10.0181,5.95571 9.63701,6.2707 C7.40857,8.11248 6.15116,10.5474 5.49805,12.6691 C5.17233,13.7272 5.00263,14.6898 4.93605,15.4329 C4.90173,15.8159 4.87147,16.2167 4.92885,16.5996 C5.31161,17.0344 5.8544,17.349 6.35694,17.6189 C7.40849,18.1837 8.98784,18.7702 11.1104,19.006 C12.3118,19.1395 13.8307,19.2158 15.2306,19.1036 C16.6832,18.9871 17.797,18.6816 18.3753,18.219 C19.3487,17.4403 19.5945,16.531 19.5061,15.7353 C19.411,14.8794 18.9297,14.1549 18.4453,13.8319 C17.6113,13.276 16.6709,13.22 15.7847,13.4522 C14.8729,13.6913 14.1236,14.2113 13.7699,14.638 C13.5903,14.8547 13.3277,14.9857 13.0466,14.9988 C12.7655,15.012 12.4918,14.906 12.2928,14.707 C11.7428,14.157 10.8079,13.9965 9.55465,14.832 C9.27706,15.017 8.92548,15.0515 8.61726,14.9238 C8.30904,14.7961 8.08479,14.5232 8.01936,14.196 C7.73254,12.7618 7.88187,11.238 8.14642,9.98143 C8.41152,8.72216 8.81221,7.63937 9.10553,7.05274 C9.27493,6.71397 9.62119,6.49997 9.99996,6.49997 C10.3787,6.49998 10.725,6.71398 10.8944,7.05276 C11.0965,7.45703 11.4677,7.81923 11.9002,7.97056 C12.2353,7.75964 12.5261,7.46504 12.7624,7.14997 C13.1962,6.57152 13.3405,6.02534 13.1483,5.54244 C12.7561,5.40173 12.2807,5.45092 11.8785,5.5003 Z M13.3623,3.5363 C13.8464,3.62895 14.5533,3.87056 14.8944,4.55273 C15.6414,6.04684 15.0248,7.46672 14.3624,8.34991 C13.9304,8.92599 13.374,9.46805 12.7268,9.79995 C12.5916,9.86929 12.3162,9.99999 11.9999,9.99998 C11.4087,9.99995 10.8298,9.73098 10.3552,9.39517 C10.2652,9.70104 10.1785,10.0371 10.1035,10.3934 C9.96183,11.0665 9.86895,11.7786 9.86389,12.4712 C10.9163,12.1309 11.9928,12.167 12.9214,12.6914 C13.5558,12.1845 14.3796,11.753 15.2776,11.5176 C16.5789,11.1765 18.1385,11.2237 19.5546,12.1678 C20.5704,12.8449 21.339,14.1204 21.4939,15.5145 C21.6555,16.9687 21.1512,18.5595 19.6247,19.7807 C18.5464,20.6434 16.9025,20.9759 15.3905,21.0972 C13.8257,21.2227 12.1728,21.1364 10.8895,20.9938 C8.51201,20.7297 6.6865,20.0661 5.41063,19.3809 C4.57281,18.9309 3.42836,18.3095 3.06534,17.3556 C2.81963,16.71 2.88378,15.9268 2.94403,15.2544 C3.02305,14.3725 3.21968,13.2726 3.58656,12.0807 C4.31865,9.70243 5.75154,6.88732 8.36288,4.72908 C9.16636,4.06502 10.5103,3.65327 11.6348,3.51521 C12.2154,3.44392 12.8258,3.43361 13.3623,3.5363 Z" id="形状" fill="#09244B"></path>
            </g>
        </g>
    </g>
</svg>

<svg xmlns="http://www.w3.org/2000/svg" width="24" height="24"><g fill="none" fill-rule="evenodd"><path d="M24 0v24H0V0h24ZM12.594 23.258l-.012.002-.071.035-.02.004-.014-.004-.071-.036c-.01-.003-.019 0-.024.006l-.004.01-.017.428.005.02.01.013.104.074.015.004.012-.004.104-.074.012-.016.004-.017-.017-.427c-.002-.01-.009-.017-.016-.018Zm.264-.113-.014.002-.184.093-.01.01-.003.011.018.43.005.012.008.008.201.092c.012.004.023 0 .029-.008l.004-.014-.034-.614c-.003-.012-.01-.02-.02-.022Zm-.715.002a.023.023 0 0 0-.027.006l-.006.014-.034.614c0 .012.007.02.017.024l.015-.002.201-.093.01-.008.003-.011.018-.43-.003-.012-.01-.01-.184-.092Z"/><path fill="#09244B" d="M11.879 5.5c-.955.117-1.86.456-2.242.77-2.228 1.842-3.486 4.277-4.139 6.4a13.779 13.779 0 0 0-.562 2.763c-.034.383-.065.784-.007 1.167.383.434.925.749 1.428 1.019 1.051.565 2.63 1.151 4.753 1.387 1.202.134 2.72.21 4.12.098 1.453-.117 2.567-.422 3.145-.885.974-.779 1.22-1.688 1.131-2.484-.095-.856-.576-1.58-1.06-1.903-.835-.556-1.775-.612-2.661-.38-.912.24-1.661.76-2.015 1.186a1 1 0 0 1-1.477.069c-.55-.55-1.485-.71-2.738.125a1 1 0 0 1-1.536-.636c-.286-1.434-.137-2.958.127-4.215.266-1.259.666-2.342.96-2.928a1 1 0 0 1 1.788 0c.203.404.574.766 1.006.918.335-.211.626-.506.862-.821.434-.578.579-1.125.386-1.608-.392-.14-.867-.091-1.27-.042Zm1.483-1.964c.484.093 1.191.335 1.532 1.017.747 1.494.13 2.914-.532 3.797-.432.576-.988 1.118-1.635 1.45-.135.07-.41.2-.727.2-.591 0-1.17-.269-1.645-.605-.09.306-.177.642-.252.998a10.597 10.597 0 0 0-.24 2.078c1.053-.34 2.13-.304 3.058.22a6.467 6.467 0 0 1 2.357-1.173c1.3-.341 2.86-.294 4.277.65 1.015.677 1.784 1.952 1.939 3.347.162 1.454-.343 3.044-1.87 4.266-1.078.862-2.721 1.195-4.233 1.316-1.565.126-3.218.04-4.501-.103-2.378-.264-4.204-.928-5.48-1.613-.837-.45-1.982-1.072-2.345-2.025-.245-.646-.181-1.43-.121-2.102.08-.881.276-1.981.643-3.173.732-2.379 2.165-5.194 4.776-7.352.803-.664 2.147-1.076 3.272-1.214.58-.071 1.19-.081 1.727.021Z"/></g></svg>
